polaris-icons/icons/new-icons/BuyButtonButtonLayoutMajor.svg

<svg width="20" height="20" viewBox="0 0 20 20" fill="none" xmlns="http://www.w3.org/2000/svg">
<path fill-rule="evenodd" clip-rule="evenodd" d="M3.5 5.25C3.5 4.2835 4.2835 3.5 5.25 3.5H6.25C6.66421 3.5 7 3.83579 7 4.25C7 4.66421 6.66421 5 6.25 5H5.25C5.11193 5 5 5.11193 5 5.25V6.25C5 6.66421 4.66421 7 4.25 7C3.83579 7 3.5 6.66421 3.5 6.25V5.25ZM5.25 16.5C4.2835 16.5 3.5 15.7165 3.5 14.75V13.75C3.5 13.3358 3.83579 13 4.25 13C4.66421 13 5 13.3358 5 13.75V14.75C5 14.8881 5.11193 15 5.25 15H6.25C6.66421 15 7 15.3358 7 15.75C7 16.1642 6.66421 16.5 6.25 16.5H5.25ZM16.5 5.25C16.5 4.2835 15.7165 3.5 14.75 3.5H13.75C13.3358 3.5 13 3.83579 13 4.25C13 4.66421 13.3358 5 13.75 5H14.75C14.8881 5 15 5.11193 15 5.25V6.25C15 6.66421 15.3358 7 15.75 7C16.1642 7 16.5 6.66421 16.5 6.25V5.25ZM16.5 14.75C16.5 15.7165 15.7165 16.5 14.75 16.5H13.75C13.3358 16.5 13 16.1642 13 15.75C13 15.3358 13.3358 15 13.75 15H14.75C14.8881 15 15 14.8881 15 14.75V13.75C15 13.3358 15.3358 13 15.75 13C16.1642 13 16.5 13.3358 16.5 13.75V14.75ZM11 5C11.4142 5 11.75 4.66421 11.75 4.25C11.75 3.83579 11.4142 3.5 11 3.5H9C8.58579 3.5 8.25 3.83579 8.25 4.25C8.25 4.66421 8.58579 5 9 5L11 5ZM11.75 15.75C11.75 16.1642 11.4142 16.5 11 16.5H9C8.58579 16.5 8.25 16.1642 8.25 15.75C8.25 15.3358 8.58579 15 9 15H11C11.4142 15 11.75 15.3358 11.75 15.75ZM6 7.5C4.61929 7.5 3.5 8.61929 3.5 10C3.5 11.3807 4.61929 12.5 6 12.5H14C15.3807 12.5 16.5 11.3807 16.5 10C16.5 8.61929 15.3807 7.5 14 7.5H6ZM5 10C5 9.44772 5.44772 9 6 9H14C14.5523 9 15 9.44772 15 10C15 10.5523 14.5523 11 14 11H6C5.44772 11 5 10.5523 5 10Z" fill="#4A4A4A"/>
</svg>

<svg viewBox="0 0 20 20" xmlns="http://www.w3.org/2000/svg"><path fill-rule="evenodd" d="M3.5 5.25c0-.966.784-1.75 1.75-1.75h1a.75.75 0 0 1 0 1.5h-1a.25.25 0 0 0-.25.25v1a.75.75 0 0 1-1.5 0v-1Zm1.75 11.25a1.75 1.75 0 0 1-1.75-1.75v-1a.75.75 0 0 1 1.5 0v1c0 .138.112.25.25.25h1a.75.75 0 0 1 0 1.5h-1Zm11.25-11.25a1.75 1.75 0 0 0-1.75-1.75h-1a.75.75 0 0 0 0 1.5h1a.25.25 0 0 1 .25.25v1a.75.75 0 0 0 1.5 0v-1Zm0 9.5a1.75 1.75 0 0 1-1.75 1.75h-1a.75.75 0 0 1 0-1.5h1a.25.25 0 0 0 .25-.25v-1a.75.75 0 0 1 1.5 0v1Zm-5.5-9.75a.75.75 0 0 0 0-1.5h-2a.75.75 0 0 0 0 1.5h2Zm.75 10.75a.75.75 0 0 1-.75.75h-2a.75.75 0 0 1 0-1.5h2a.75.75 0 0 1 .75.75Zm-5.75-8.25a2.5 2.5 0 0 0 0 5h8a2.5 2.5 0 0 0 0-5h-8Zm-1 2.5a1 1 0 0 1 1-1h8a1 1 0 1 1 0 2h-8a1 1 0 0 1-1-1Z" fill="#5C5F62"/></svg>
